assets/Dolphin/Flat/dolphin_flat.svg

<svg width="32" height="32" viewBox="0 0 32 32" fill="none" xmlns="http://www.w3.org/2000/svg">
<path d="M15.6967 2.03125C17.0221 2.09499 18.3076 2.40122 19.507 2.90494C21.5543 2.02739 23.8035 1.77522 25.9967 2.20484L26.3667 2.27966C27.1067 2.42935 27.3967 3.38097 26.8867 3.95835C26.0386 4.92373 25.3484 6.02252 24.8239 7.20603C26.1495 9.09176 26.9453 11.3472 26.9531 13.7211C26.8594 20.9375 21.395 25.2856 15.125 25.2656C14.055 25.2656 13.0367 25.2644 12.0567 24.9844V26.5011C12.0567 28.4517 10.4521 29.7749 8.53653 29.9739C8.25956 30.0027 8.03396 29.7725 8.03727 29.4941L8.07813 26.0547C8.27004 24.7416 9.03654 24.0292 9.56089 23.5419C9.84768 23.2754 10.062 23.0762 10.0703 22.8828C10.0782 22.6996 9.87992 22.5172 9.60397 22.2634C9.05634 21.7597 8.20273 20.9745 8.04688 19.3425V15.8906C8.04688 15.2969 8.57813 15.3359 8.84376 15.4297C10.6905 15.7399 12.0567 17.5479 12.0567 19.4611V21.4511C13.8781 21.4969 14.8709 20.6213 15.9091 19.7055C15.9786 19.6442 16.0483 19.5828 16.1184 19.5214C19.4356 16.8674 19.2978 14.1444 18.5 12.5001C18.0807 11.6358 17.5191 11.1289 16.741 10.8418C16.2103 12.7852 16.5099 14.5264 16.8594 15.5C17.2283 16.5278 16.3113 16.4858 15.9375 16.1718C14.3151 14.809 13.9093 13.1256 14.0319 10.5001C14.0213 10.5001 14.0107 10.5001 14 10.5001H6L5.05793 9.98488C4.72966 8.8925 5.27181 7.53887 6.70422 7.39401C6.77753 7.3866 6.85076 7.38152 6.92243 7.37655C7.36502 7.34586 7.74826 7.31928 7.72448 6.77229C7.72448 4.4289 10.1294 2.02124 12.6767 2.02124L15.6967 2.03125Z" fill="#00A6ED"/>
<path d="M12.7066 7.4133C13.0969 7.4133 13.4133 7.09692 13.4133 6.70665C13.4133 6.31638 13.0969 6 12.7066 6C12.3164 6 12 6.31638 12 6.70665C12 7.09692 12.3164 7.4133 12.7066 7.4133Z" fill="#1C1C1C"/>
<path d="M16.4856 12.2617C16.4957 12.2682 16.5057 12.2747 16.5156 12.2812C18.9961 14.4353 17.9705 17.5244 16.1179 19.5219C19.4501 16.8707 20.3334 14.3541 19.3125 12.25C18.7908 11.1748 17.9365 10.5994 16.9117 10.2934C16.6729 10.975 16.5415 11.6389 16.4856 12.2617Z" fill="#AEDDFF"/>
<path d="M14.0637 9.95598C13.9075 9.95391 13.7508 9.95313 13.5938 9.95312H5.04865C5.27043 10.7345 5.93368 11.3906 7.03125 11.3906C7.44835 11.3906 7.86308 11.3893 8.27321 11.3879C10.4183 11.381 12.4379 11.3744 14.0136 11.5629C14.005 11.0666 14.0238 10.5329 14.0637 9.95598Z" fill="#AEDDFF"/>
</svg>

<svg xmlns="http://www.w3.org/2000/svg" width="32" height="32" fill="none"><path fill="#00A6ED" d="M15.697 2.031c1.325.064 2.61.37 3.81.874a11.044 11.044 0 0 1 6.49-.7l.37.075c.74.15 1.03 1.101.52 1.678a12.721 12.721 0 0 0-2.063 3.248c1.325 1.886 2.121 4.141 2.13 6.515-.095 7.216-5.559 11.565-11.829 11.545-1.07 0-2.088-.002-3.068-.282v1.517c0 1.95-1.605 3.274-3.52 3.473-.277.029-.503-.201-.5-.48l.041-3.44c.192-1.312.959-2.025 1.483-2.512.287-.267.501-.466.51-.66.007-.182-.191-.365-.467-.619-.548-.503-1.401-1.289-1.557-2.92V15.89c0-.594.531-.555.797-.461 1.847.31 3.213 2.118 3.213 4.031v1.99c1.821.046 2.814-.83 3.852-1.745l.21-.185c3.317-2.654 3.179-5.377 2.381-7.02-.42-.865-.98-1.372-1.759-1.66-.53 1.944-.231 3.685.118 4.659.37 1.028-.548.986-.922.672-1.622-1.363-2.028-3.046-1.905-5.672H6l-.942-.515c-.328-1.092.214-2.446 1.646-2.591a6.94 6.94 0 0 1 .218-.017c.443-.031.826-.058.802-.605 0-2.343 2.405-4.75 4.953-4.75l3.02.01Z"/><path fill="#1C1C1C" d="M12.707 7.413a.707.707 0 1 0 0-1.413.707.707 0 0 0 0 1.413Z"/><path fill="#AEDDFF" d="m16.486 12.262.03.02c2.48 2.153 1.455 5.242-.398 7.24 3.332-2.651 4.215-5.168 3.195-7.272-.522-1.075-1.377-1.65-2.401-1.957a8.15 8.15 0 0 0-.426 1.969ZM14.064 9.956a35.647 35.647 0 0 0-.47-.003H5.049c.221.782.885 1.438 1.982 1.438.417 0 .832-.002 1.242-.003 2.145-.007 4.165-.014 5.74.175-.008-.496.01-1.03.05-1.607Z"/></svg>
